Assets/HUD/Webcam/WebcamLUT.cube
TITLE "Generated by Resolve"
LUT_3D_SIZE 5
0 0 0
0.136873 0.0487831 0.113313
0.377859 0.119738 0.150866
0.618433 0.216114 0.21091
0.847608 0.356573 0.32871
0 0.242481 0.128267
0.132967 0.258061 0.139116
0.38468 0.298222 0.183658
0.614618 0.37435 0.271138
0.842969 0.47808 0.376562
0 0.504067 0.246799
0.055436 0.518669 0.268635
0.361837 0.552071 0.315679
0.6038 0.604807 0.384222
0.833265 0.673228 0.4663
0 0.78175 0.421637
0 0.791913 0.436454
0.332631 0.814557 0.468711
0.584955 0.850034 0.51725
0.817319 0.896513 0.577508
0 1 0.583368
0 1 0.593469
0.261906 1 0.61619
0.545174 1 0.652033
0.788739 1 0.699611
0 0.0184024 0.346929
0.101854 0.0588693 0.392462
0.379416 0.120851 0.344808
0.61944 0.218769 0.378012
0.849165 0.358373 0.463798
0 0.246311 0.327001
0.129564 0.261372 0.327993
0.383932 0.301335 0.356222
0.615885 0.376928 0.418448
0.844602 0.479301 0.498619
0 0.507607 0.392874
0.0549325 0.521874 0.409354
0.363073 0.554635 0.445655
0.605524 0.606424 0.500359
0.835035 0.673884 0.568322
0 0.783658 0.524819
0 0.793545 0.537575
0.335302 0.815839 0.565484
0.586801 0.850874 0.607935
0.818921 0.896788 0.661326
0 1 0.66276
0 1 0.671992
0.264439 1 0.692699
0.54699 1 0.725551
0.790509 1 0.769421
0 0.07393 0.654398
0.0395666 0.104265 0.618006
0.378943 0.148043 0.555917
0.619303 0.241962 0.592401
0.850523 0.374273 0.659342
0 0.266758 0.538766
0.110506 0.28127 0.542367
0.377981 0.320653 0.571206
0.615946 0.393729 0.621439
0.846052 0.490715 0.683894
0 0.52282 0.592615
0.0383001 0.536416 0.606012
0.361074 0.567224 0.635355
0.606378 0.61622 0.679896
0.836881 0.680705 0.735973
0 0.791928 0.692424
0 0.801373 0.703349
0.336629 0.822553 0.727459
0.588724 0.856062 0.764111
0.820813 0.900374 0.810468
0 1 0.806516
0 1 0.814694
0.26743 1 0.833234
0.549355 1 0.862547
0.792584 1 0.901717
0 0.153918 0.839033
0.0210269 0.166751 0.791714
0.371801 0.206882 0.775753
0.615839 0.295659 0.819562
0.849409 0.413489 0.871611
0 0.309453 0.758709
0.0523232 0.324865 0.769879
0.363851 0.36463 0.798657
0.611902 0.433036 0.838575
0.844923 0.520363 0.889174
0 0.555688 0.807355
0 0.568063 0.818418
0.351034 0.595987 0.843046
0.603052 0.640665 0.880949
0.836149 0.699809 0.929656
0 0.811307 0.885618
0 0.819883 0.89543
0.329915 0.839399 0.917052
0.586191 0.870436 0.95021
0.820081 0.911833 0.992279
0 1 0.984375
0 1 0.991943
0.262699 1 1
0.547967 1 1
0.792905 1 1
0 0.23534 0.999496
0 0.250614 0.99382
0.346975 0.295918 1
0.605875 0.377081 1
0.843763 0.475853 1
0 0.378927 0.997147
0 0.395346 1
0.338064 0.434043 1
0.601267 0.49456 1
0.839292 0.569757 1
0 0.6065 1
0 0.617365 1
0.329152 0.642084 1
0.593378 0.681346 1
0.830991 0.733654 1
0 0.84329 1
0 0.850919 1
0.310933 0.868269 1
0.57702 0.896071 1
0.815061 0.933822 1
0 1 1
0 1 1
0.243381 1 1
0.540215 1 1
0.789044 1 1
