Assets/HUD/Webcam/WebcamLUT.cube
TITLE "Generated by Resolve"
LUT_3D_SIZE 33
0 0 0
0.0162509 0.00366217 0.00816358
0.0260319 0.00866712 0.0208133
0.0391699 0.0130465 0.0313115
0.0547036 0.0182193 0.0437476
0.0731518 0.0243687 0.0584878
0.0942702 0.0315099 0.0756237
0.115373 0.0396735 0.0948196
0.136873 0.0487831 0.113313
0.160662 0.0583352 0.128405
0.186877 0.0681163 0.139818
0.215396 0.0778821 0.147616
0.246021 0.0875715 0.151904
0.278584 0.0960861 0.152834
0.311879 0.104021 0.152102
0.345205 0.111696 0.150851
0.377859 0.119738 0.150866
0.409873 0.128527 0.152438
0.441337 0.13814 0.155581
0.472236 0.148714 0.160372
0.502556 0.16022 0.166903
0.532357 0.172671 0.17525
0.561517 0.186221 0.185443
0.590097 0.200748 0.197528
0.618433 0.216114 0.21091
0.646952 0.232059 0.224643
0.675639 0.248707 0.238743
0.704509 0.265843 0.253208
0.733303 0.283497 0.267918
0.762097 0.301396 0.282811
0.790814 0.319615 0.297978
0.819318 0.33814 0.313313
0.847608 0.356573 0.32871
0 0.0314336 0.0297398
0 0.0358892 0.0402228
0.00418097 0.0402991 0.0506905
0.0172732 0.0447242 0.0612192
0.0327611 0.0499428 0.0736858
0.0511635 0.0561227 0.0885176
0.0726787 0.0632639 0.103944
0.0983749 0.0711376 0.117998
0.125383 0.07953 0.129778
0.153872 0.088365 0.139055
0.183886 0.0966354 0.145647
0.215427 0.104494 0.149447
0.248447 0.111772 0.150454
0.281941 0.11873 0.150042
0.315435 0.125521 0.14902
0.348196 0.13257 0.148943
0.380316 0.140276 0.15024
0.411902 0.148699 0.152956
0.442863 0.158038 0.157137
0.473304 0.168246 0.162921
0.503227 0.1794 0.170382
0.532616 0.19147 0.179568
0.561425 0.204562 0.19057
0.589715 0.218647 0.203235
0.618128 0.233356 0.216495
0.646693 0.248768 0.230152
0.675456 0.264744 0.244175
0.70428 0.281376 0.258534
0.73312 0.298299 0.273075
0.761852 0.315679 0.287861
0.790509 0.33341 0.302892
0.818952 0.351247 0.31809
0.847105 0.369207 0.333242
0 0.0629282 0.0593881
0 0.0674144 0.0699168
0 0.07187 0.080415
0 0.0763256 0.0909285
0.0111849 0.0817884 0.10193
0.0309148 0.0876631 0.112749
0.0554513 0.0939651 0.122774
0.0858625 0.100526 0.131579
0.118166 0.10724 0.13875
0.150713 0.113909 0.144015
0.183841 0.120424 0.147127
0.217762 0.126635 0.148028
0.251728 0.132738 0.14786
0.285466 0.138781 0.147066
0.318441 0.145006 0.147005
0.350668 0.151843 0.14815
0.38233 0.159304 0.15053
0.413458 0.167544 0.154253
0.444053 0.176608 0.159396
0.474067 0.186572 0.16611
0.503594 0.197436 0.174395
0.532647 0.209216 0.184375
0.561059 0.221973 0.196109
0.589364 0.235538 0.208896
0.617792 0.249744 0.22208
0.646464 0.264607 0.23563
0.675303 0.280125 0.249561
0.704097 0.296208 0.263783
0.732845 0.312627 0.278187
0.761578 0.329412 0.292866
0.790219 0.346578 0.307744
0.818524 0.363928 0.322774
0.846754 0.381262 0.337743
0 0.094377 0.0892958
0 0.098436 0.098558
0 0.102296 0.106523
0 0.105989 0.113481
0 0.11014 0.120455
0.0164492 0.114763 0.12726
0.0441291 0.119753 0.133455
0.0778973 0.124987 0.138674
0.114961 0.130373 0.14258
0.150805 0.135744 0.144869
0.186252 0.141054 0.145571
0.220996 0.146365 0.145525
0.255253 0.151705 0.144991
0.288518 0.157244 0.145052
0.320958 0.163302 0.146151
0.352758 0.169955 0.148318
0.383978 0.177325 0.151659
0.414679 0.185382 0.156298
0.444892 0.194278 0.162341
0.474571 0.203998 0.169848
0.503761 0.214588 0.178958
0.532418 0.226139 0.18967
0.560616 0.238605 0.201877
0.588983 0.251698 0.214572
0.617548 0.265446 0.227665
0.646235 0.279881 0.241093
0.675059 0.294972 0.254963
0.703807 0.310536 0.268971
0.732616 0.326421 0.283284
0.761181 0.342916 0.297826
0.789792 0.359503 0.312596
0.818112 0.376303 0.327428
0.846311 0.393103 0.342199
0 0.125383 0.114107
0 0.128557 0.119524
0 0.131594 0.124178
0 0.134508 0.128176
0 0.137774 0.132113
0.00634775 0.141421 0.135805
0.0374151 0.145388 0.138918
0.0750286 0.149554 0.141146
0.11603 0.153826 0.142245
0.153948 0.158236 0.142718
0.190204 0.162722 0.142641
0.225101 0.167376 0.142428
0.258747 0.172259 0.14287
0.291417 0.177646 0.144137
0.323369 0.183566 0.146334
0.354681 0.190127 0.149569
0.385428 0.19736 0.153933
0.415686 0.20528 0.159579
0.445518 0.213962 0.166567
0.474739 0.223545 0.174975
0.503532 0.233936 0.184924
0.531853 0.245167 0.196414
0.560098 0.257221 0.208621
0.588525 0.269886 0.221195
0.617151 0.283207 0.23418
0.645914 0.29723 0.247532
0.674647 0.311803 0.261204
0.703487 0.326787 0.275074
0.732174 0.342275 0.289235
0.760861 0.358083 0.30367
0.789273 0.374212 0.318257
0.817685 0.390311 0.33283
0.845884 0.406531 0.347417
0 0.155612 0.128374
0 0.158099 0.131075
0 0.160464 0.133288
0 0.162737 0.135058
0 0.165301 0.136629
0.0028687 0.168154 0.137835
0.0375525 0.171283 0.138613
0.0783551 0.174624 0.139132
0.120638 0.17818 0.1393
0.158984 0.181918 0.1393
0.194781 0.185885 0.139712
0.228916 0.190219 0.140642
0.261875 0.19501 0.14229
0.293965 0.200305 0.144701
0.325414 0.206134 0.148043
0.356222 0.212589 0.152377
0.386496 0.219699 0.157855
0.416373 0.227466 0.164553
0.445594 0.236088 0.172519
0.474479 0.245411 0.181918
0.502815 0.255604 0.192767
0.531075 0.266514 0.204456
0.559442 0.27808 0.216526
0.588006 0.290333 0.228962
0.616693 0.303258 0.241825
0.645502 0.316777 0.255055
0.674296 0.3308 0.268482
0.703014 0.345251 0.282216
0.731792 0.360128 0.296239
0.760327 0.375433 0.310475
0.788846 0.390784 0.324788
0.817029 0.406378 0.339117
0.845151 0.42208 0.35346
0 0.185 0.132586
0 0.186923 0.133333
0 0.188754 0.133928
0 0.190555 0.134417
0 0.192599 0.134829
0.00613413 0.194934 0.135134
0.0428016 0.197498 0.135332
0.0852827 0.200351 0.135698
0.12639 0.203464 0.136324
0.163622 0.206882 0.137346
0.198566 0.210712 0.138857
0.232044 0.214954 0.140932
0.264408 0.219684 0.143725
0.295979 0.224903 0.147311
0.326848 0.230686 0.151781
0.357168 0.237079 0.157244
0.386938 0.244114 0.163836
0.416251 0.25182 0.171588
0.445106 0.260243 0.180636
0.473472 0.269444 0.190997
0.501747 0.279316 0.202121
0.530144 0.28986 0.213642
0.558663 0.301045 0.225544
0.587366 0.31284 0.237888
0.61619 0.325292 0.250599
0.644968 0.338277 0.263569
0.673762 0.351736 0.276814
0.702525 0.365591 0.290394
0.731289 0.379904 0.304219
0.759701 0.394568 0.318227
0.788144 0.409308 0.332219
0.816449 0.424155 0.346288
0.844556 0.439185 0.360357
0 0.213748 0.130175
0 0.215305 0.130465
0 0.216831 0.130816
0 0.218341 0.131182
0 0.220066 0.131685
0.0118105 0.22208 0.132387
0.0486 0.224384 0.133288
0.0908675 0.227008 0.134493
0.130648 0.230015 0.13608
0.16701 0.233402 0.138094
0.201282 0.237186 0.140658
0.23415 0.241398 0.143847
0.265934 0.246098 0.147723
0.296956 0.251316 0.152407
0.327352 0.257038 0.158022
0.357168 0.263386 0.16463
0.386465 0.270329 0.17229
0.415274 0.277974 0.181125
0.443656 0.28629 0.191135
0.472099 0.295186 0.201678
0.500511 0.304753 0.212619
0.529152 0.314885 0.223972
0.557839 0.325704 0.235752
0.586664 0.337102 0.247929
0.615457 0.349096 0.26038
0.644251 0.361532 0.273121
0.673121 0.374365 0.286198
0.701839 0.387762 0.29958
0.730541 0.401404 0.313161
0.759014 0.415305 0.326787
0.787366 0.429389 0.34049
0.815747 0.443503 0.354284
0.843839 0.457862 0.368093
0 0.242481 0.128267
0 0.243839 0.129
0 0.245228 0.129809
0 0.246586 0.130648
0 0.248219 0.131685
0.01561 0.250187 0.133013
0.0522774 0.252461 0.13463
0.0940871 0.25507 0.13666
0.132967 0.258061 0.139116
0.168688 0.261418 0.142077
0.202457 0.265171 0.145632
0.234745 0.269413 0.149828
0.266087 0.274098 0.154772
0.296635 0.279271 0.160555
0.326543 0.285008 0.167254
0.35584 0.29131 0.174899
0.38468 0.298222 0.183658
0.41326 0.305715 0.193179
0.441825 0.313802 0.203098
0.470466 0.322423 0.213458
0.499214 0.331655 0.224231
0.527993 0.341497 0.235416
0.556863 0.351949 0.247028
0.585794 0.36289 0.25893
0.614618 0.37435 0.271138
0.643519 0.386221 0.283696
0.672343 0.398581 0.296574
0.701015 0.411353 0.309697
0.729686 0.424292 0.322911
0.75819 0.437491 0.336202
0.786572 0.450858 0.349584
0.814771 0.464393 0.363043
0.842969 0.47808 0.376562
0 0.271916 0.130388
0 0.273274 0.131579
0 0.274632 0.132799
0 0.27599 0.134081
0 0.277623 0.135637
0.0163577 0.279576 0.13753
0.0527657 0.281849 0.139849
0.094255 0.284459 0.142596
0.132708 0.287449 0.145876
0.168017 0.290822 0.149706
0.201358 0.294606 0.154177
0.233387 0.298817 0.159365
0.264317 0.303517 0.165316
0.294438 0.308705 0.172091
0.323995 0.314412 0.179812
0.353033 0.320668 0.188235
0.381994 0.327413 0.197116
0.410986 0.334707 0.206439
0.439841 0.342535 0.216159
0.468757 0.350942 0.226337
0.497749 0.359884 0.236927
0.526787 0.36939 0.247959
0.555795 0.379416 0.259266
0.584817 0.389853 0.270939
0.613718 0.400793 0.282933
0.642588 0.412238 0.295277
0.671366 0.424033 0.307836
0.700114 0.436072 0.320562
0.728725 0.448341 0.333425
0.757244 0.460838 0.346395
0.78558 0.473564 0.359426
0.813916 0.486412 0.372564
0.841947 0.499535 0.385733
0 0.302495 0.137011
0 0.303838 0.138598
0 0.305196 0.140246
0 0.306584 0.141909
0 0.308232 0.143923
0.0129702 0.31017 0.146349
0.0490272 0.312444 0.149294
0.0900282 0.315099 0.152743
0.128878 0.31809 0.156771
0.164324 0.321462 0.16141
0.197498 0.325277 0.16672
0.229358 0.329519 0.172778
0.260121 0.334234 0.179583
0.290349 0.339361 0.186923
0.320165 0.344976 0.194705
0.349783 0.35108 0.202945
0.379187 0.357656 0.211612
0.408484 0.364767 0.220722
0.437812 0.372381 0.230289
0.467048 0.380529 0.240269
0.496254 0.389197 0.25066
0.525475 0.398276 0.261372
0.554543 0.407858 0.27245
0.583566 0.417929 0.283879
0.612589 0.428382 0.295674
0.641474 0.439277 0.307683
0.670329 0.450355 0.31986
0.699046 0.461753 0.332204
0.727657 0.473426 0.344686
0.756146 0.485298 0.35729
0.784482 0.497383 0.369985
0.812818 0.509606 0.382773
0.841016 0.521996 0.395636
0 0.334188 0.14844
0 0.335546 0.150423
0 0.336904 0.152392
0 0.338308 0.154421
0 0.33994 0.156878
0.00416571 0.341909 0.159823
0.0393988 0.344228 0.163287
0.0798352 0.346868 0.167346
0.120195 0.349889 0.17203
0.156527 0.353292 0.177279
0.190494 0.357107 0.183001
0.223117 0.361288 0.189212
0.254765 0.365896 0.195865
0.28574 0.370947 0.202991
0.316228 0.376425 0.210559
0.346319 0.382391 0.218616
0.376303 0.3888 0.2271
0.406027 0.395743 0.236042
0.43566 0.403143 0.24538
0.465126 0.411032 0.2551
0.494606 0.419303 0.265202
0.523949 0.428016 0.275685
0.55314 0.437201 0.286519
0.58233 0.446815 0.297734
0.611429 0.456718 0.309133
0.640406 0.466941 0.32076
0.669184 0.477485 0.33254
0.697932 0.488273 0.344518
0.726528 0.499321 0.356619
0.755001 0.510582 0.368841
0.783444 0.522011 0.381201
0.81181 0.533608 0.393622
0.839826 0.545495 0.406119
0 0.366903 0.164889
0 0.368277 0.167193
0 0.36968 0.169451
0 0.371069 0.17174
0 0.372702 0.174411
0 0.374701 0.177569
0.0242008 0.376989 0.181216
0.0646677 0.379599 0.185306
0.108171 0.382589 0.189914
0.146868 0.385962 0.194995
0.182666 0.38967 0.200534
0.216541 0.39379 0.206531
0.249195 0.398322 0.213016
0.280949 0.403296 0.219944
0.312123 0.408667 0.227375
0.342901 0.414496 0.235248
0.373297 0.420783 0.243488
0.40354 0.427466 0.252201
0.433417 0.434577 0.261265
0.463188 0.4421 0.270741
0.492805 0.450065 0.280613
0.522316 0.458412 0.290898
0.551736 0.46717 0.301411
0.580972 0.476249 0.3122
0.61004 0.485649 0.323201
0.639063 0.495293 0.334417
0.667979 0.505241 0.345846
0.696727 0.515404 0.357443
0.725277 0.525948 0.369131
0.753887 0.536553 0.381003
0.782254 0.547433 0.392996
0.810498 0.558541 0.405051
0.838743 0.569757 0.417243
0 0.400427 0.184436
0 0.401785 0.186633
0 0.403159 0.188815
0 0.404517 0.191012
0 0.406165 0.193591
0 0.408118 0.196612
0.0084535 0.410391 0.200137
0.0493477 0.412985 0.204105
0.0950027 0.41593 0.20856
0.136767 0.419242 0.213489
0.174548 0.422904 0.21886
0.209857 0.426963 0.22472
0.243549 0.431418 0.231037
0.276234 0.436301 0.237781
0.308186 0.44155 0.244984
0.339498 0.447181 0.252598
0.370382 0.453223 0.260655
0.400854 0.459663 0.269108
0.431174 0.466453 0.277974
0.461189 0.473686 0.287221
0.491035 0.4813 0.296803
0.520668 0.489265 0.306661
0.550179 0.497505 0.316793
0.579477 0.506096 0.327214
0.608728 0.514946 0.337835
0.63772 0.524102 0.348669
0.66659 0.533532 0.359686
0.695369 0.543175 0.370871
0.724025 0.553094 0.382223
0.752544 0.563226 0.393698
0.780911 0.573602 0.405325
0.809293 0.584085 0.417029
0.837491 0.594766 0.42884
0 0.434501 0.204608
0 0.435859 0.206729
0 0.437186 0.208835
0 0.43856 0.210971
0 0.440192 0.213458
0 0.442115 0.216403
0 0.444343 0.219806
0.0343481 0.446937 0.223667
0.0813611 0.449836 0.22797
0.126726 0.453101 0.232731
0.166537 0.456733 0.237964
0.203326 0.460716 0.243641
0.238285 0.465019 0.24976
0.271717 0.469734 0.256336
0.30425 0.474784 0.263294
0.336034 0.480217 0.27071
0.367544 0.485954 0.278553
0.398245 0.492195 0.286763
0.42887 0.498741 0.295338
0.459205 0.505623 0.304234
0.489189 0.51281 0.31342
0.519005 0.520302 0.322927
0.548608 0.528115 0.332677
0.577905 0.536233 0.342672
0.607172 0.54464 0.352895
0.636225 0.553323 0.363348
0.665156 0.562249 0.373983
0.693965 0.571389 0.384802
0.722713 0.580758 0.395819
0.751202 0.590417 0.406882
0.779614 0.600244 0.418158
0.807935 0.610269 0.42948
0.836149 0.620447 0.440909
0 0.469093 0.225422
0 0.470436 0.227466
0 0.471763 0.229511
0 0.473136 0.231571
0 0.474754 0.233982
0 0.476661 0.236805
0 0.478843 0.240101
0.0205539 0.481361 0.243854
0.0676127 0.484215 0.24802
0.116686 0.487358 0.252644
0.158816 0.490837 0.25771
0.196933 0.494682 0.263218
0.232959 0.498817 0.269154
0.267262 0.503365 0.275517
0.300404 0.508247 0.282261
0.332891 0.513466 0.289433
0.36463 0.519036 0.296956
0.395773 0.524956 0.30486
0.426642 0.531136 0.313085
0.457176 0.537606 0.321599
0.487251 0.544442 0.330434
0.517143 0.551537 0.339544
0.546731 0.558984 0.348913
0.576272 0.566629 0.358557
0.605493 0.574639 0.368399
0.634684 0.582803 0.37847
0.6636 0.591318 0.388708
0.692531 0.599939 0.399176
0.721187 0.608881 0.409766
0.749737 0.618051 0.420478
0.77818 0.627375 0.431373
0.806531 0.636927 0.442344
0.834867 0.64654 0.453422
0 0.504067 0.246799
0 0.505379 0.248768
0 0.506691 0.250767
0 0.507988 0.252735
0 0.509529 0.25507
0 0.51136 0.257816
0 0.513512 0.26099
0.00790417 0.515908 0.264607
0.055436 0.518669 0.268635
0.106889 0.521706 0.273136
0.1514 0.525048 0.278004
0.191211 0.528756 0.28333
0.228061 0.53283 0.289006
0.263157 0.537163 0.295125
0.296986 0.541833 0.30161
0.329793 0.546807 0.308461
0.361837 0.552071 0.315679
0.393256 0.557671 0.323217
0.424338 0.563531 0.331106
0.454902 0.569741 0.339269
0.485176 0.576196 0.347738
0.515236 0.58291 0.356512
0.5449 0.58999 0.365499
0.574487 0.597238 0.374746
0.6038 0.604807 0.384222
0.632975 0.612589 0.393912
0.661936 0.620661 0.403815
0.690929 0.628855 0.41387
0.719676 0.637324 0.424094
0.748226 0.646036 0.43447
0.776745 0.654902 0.444968
0.805081 0.663966 0.455604
0.833265 0.673228 0.4663
0 0.53904 0.26865
0 0.540322 0.270558
0 0.541604 0.27245
0 0.542855 0.274372
0 0.544366 0.2766
0 0.54612 0.279255
0 0.548211 0.282307
0 0.550576 0.285771
0.0446784 0.553216 0.289647
0.0976425 0.556191 0.293904
0.144366 0.559411 0.298573
0.185534 0.562936 0.30367
0.223209 0.566827 0.309117
0.259037 0.570947 0.314946
0.29337 0.575372 0.321157
0.326558 0.580102 0.327703
0.358984 0.585077 0.3346
0.3906 0.590417 0.341817
0.421805 0.596017 0.349355
0.452583 0.601877 0.357183
0.482994 0.607996 0.365301
0.51313 0.614404 0.373724
0.543008 0.621073 0.382361
0.572519 0.628031 0.391257
0.602045 0.635157 0.400366
0.63122 0.642573 0.409705
0.660243 0.650217 0.419211
0.689189 0.658045 0.428916
0.718044 0.666087 0.438773
0.746593 0.674311 0.448768
0.775113 0.682795 0.458885
0.803555 0.691371 0.469184
0.831785 0.700221 0.479515
0 0.574212 0.290745
0 0.575402 0.292576
0 0.576669 0.294377
0 0.577874 0.296178
0 0.579293 0.298329
0 0.581018 0.300862
0 0.583017 0.303777
0 0.585229 0.307088
0.0340887 0.587777 0.31075
0.087953 0.590585 0.314824
0.13695 0.593683 0.319295
0.179446 0.597055 0.324102
0.218311 0.600702 0.32932
0.254719 0.604639 0.33489
0.289555 0.60885 0.34081
0.32314 0.613321 0.347066
0.355871 0.618082 0.353643
0.387961 0.623102 0.360586
0.419226 0.628443 0.367788
0.450233 0.634012 0.375296
0.480751 0.639841 0.383078
0.510826 0.645975 0.391119
0.540902 0.652262 0.399435
0.570565 0.658839 0.407965
0.600107 0.665644 0.416739
0.629435 0.672679 0.425727
0.658534 0.679957 0.434852
0.687404 0.687419 0.44419
0.716197 0.695094 0.453666
0.744869 0.702953 0.463325
0.77351 0.710948 0.473121
0.801892 0.719158 0.483009
0.830106 0.727581 0.493004
0 0.609247 0.312856
0 0.610391 0.31458
0 0.611566 0.316304
0 0.612741 0.318013
0 0.614099 0.320058
0 0.615732 0.322469
0 0.617624 0.325231
0 0.619791 0.328374
0.0233616 0.622187 0.331899
0.0771649 0.624842 0.33576
0.129366 0.627771 0.340032
0.173358 0.631006 0.34464
0.213184 0.63444 0.349599
0.250462 0.638178 0.354925
0.28571 0.642191 0.360571
0.319677 0.646479 0.366537
0.352758 0.650996 0.372854
0.384909 0.655818 0.379461
0.416541 0.660868 0.386358
0.447517 0.666178 0.39353
0.47834 0.671672 0.400992
0.508705 0.677485 0.408713
0.538872 0.683452 0.416709
0.568475 0.689754 0.424872
0.597986 0.696284 0.43328
0.627329 0.702983 0.441886
0.65655 0.70985 0.450721
0.685588 0.71696 0.459648
0.714443 0.724239 0.468833
0.743099 0.731731 0.478111
0.771725 0.73933 0.487541
0.800137 0.747204 0.497108
0.828382 0.755184 0.506722
0 0.644099 0.33489
0 0.645182 0.336553
0 0.646296 0.338186
0 0.647395 0.339849
0 0.648722 0.341756
0 0.650263 0.344045
0 0.652049 0.34667
0 0.654108 0.349676
0.0127565 0.656382 0.353033
0.0670024 0.65893 0.35671
0.121767 0.661707 0.360769
0.166964 0.66479 0.365148
0.207858 0.668086 0.369879
0.245792 0.671656 0.374975
0.281376 0.675502 0.380316
0.316014 0.67953 0.386053
0.349111 0.683894 0.392081
0.381781 0.688426 0.398398
0.413657 0.693233 0.40499
0.444923 0.698283 0.411856
0.4757 0.703578 0.419013
0.506294 0.709041 0.426398
0.536324 0.714839 0.434028
0.566201 0.72076 0.441901
0.59588 0.726925 0.449989
0.62536 0.733257 0.458228
0.654521 0.739834 0.466712
0.683421 0.746639 0.475303
0.712398 0.753597 0.484138
0.74107 0.760739 0.493065
0.769696 0.768017 0.502129
0.798184 0.775464 0.51136
0.826581 0.783047 0.520638
0 0.678813 0.356817
0 0.679835 0.358389
0 0.680888 0.35996
0 0.681941 0.361501
0 0.683162 0.363363
0 0.684642 0.365545
0 0.68632 0.368048
0 0.688289 0.370886
0.0015259 0.690486 0.374075
0.055787 0.692927 0.377584
0.112825 0.695552 0.381445
0.160342 0.698466 0.385611
0.202213 0.701625 0.390158
0.240955 0.704997 0.39498
0.277089 0.708675 0.400092
0.311849 0.712551 0.405539
0.3458 0.716625 0.411307
0.378485 0.720958 0.41735
0.410498 0.725551 0.423667
0.442161 0.730327 0.430243
0.472999 0.735393 0.437079
0.503548 0.740642 0.444144
0.533776 0.74612 0.451453
0.563806 0.751751 0.459007
0.593576 0.757641 0.466743
0.622965 0.763699 0.474693
0.652262 0.769955 0.482811
0.681376 0.77644 0.491112
0.710079 0.783093 0.499535
0.739086 0.789822 0.508171
0.767727 0.79678 0.516899
0.796216 0.803876 0.525734
0.824567 0.811154 0.534722
0 0.713268 0.378622
0 0.71426 0.380118
0 0.715267 0.381613
0 0.716274 0.383078
0 0.717449 0.384833
0 0.718868 0.386877
0 0.7205 0.389273
0 0.722393 0.391989
0 0.724453 0.39501
0.0441901 0.726741 0.398352
0.102693 0.729274 0.402014
0.152682 0.732036 0.406012
0.196033 0.735027 0.4103
0.235523 0.738262 0.414923
0.272557 0.741726 0.419837
0.307591 0.745464 0.42501
0.341711 0.749355 0.430518
0.37467 0.753506 0.436286
0.407111 0.75787 0.442329
0.438727 0.762448 0.448585
0.469917 0.767239 0.455161
0.500694 0.772229 0.461921
0.531151 0.777371 0.468925
0.561135 0.782803 0.476143
0.590906 0.788418 0.483574
0.62034 0.794232 0.491157
0.649866 0.800137 0.49897
0.678965 0.806302 0.506966
0.708034 0.812619 0.515114
0.736767 0.819104 0.523354
0.765347 0.825772 0.531746
0.793881 0.832547 0.540261
0.822324 0.839445 0.548913
0 0.7476 0.400229
0 0.748531 0.401663
0 0.749477 0.403082
0 0.750439 0.404471
0 0.751568 0.406149
0 0.752956 0.408072
0 0.754498 0.410361
0 0.756222 0.41294
0 0.758206 0.415824
0.0323033 0.760388 0.419028
0.0923171 0.762814 0.422507
0.144472 0.765454 0.426307
0.189059 0.768338 0.430411
0.22945 0.771435 0.434806
0.267048 0.774731 0.439475
0.303059 0.778241 0.444434
0.337484 0.781979 0.449683
0.371023 0.785885 0.455177
0.403464 0.790082 0.460929
0.435492 0.794385 0.466972
0.466712 0.798978 0.473228
0.497642 0.803738 0.479713
0.528054 0.808743 0.486397
0.558175 0.813916 0.493309
0.588052 0.819242 0.50042
0.617639 0.824765 0.507729
0.647059 0.830442 0.51519
0.67631 0.836316 0.52285
0.705409 0.842283 0.530678
0.734218 0.848493 0.538628
0.762997 0.854795 0.5467
0.79144 0.861326 0.554879
0.819944 0.867903 0.563195
0 0.78175 0.421637
0 0.782666 0.42298
0 0.783551 0.424323
0 0.784451 0.425666
0 0.785565 0.427237
0 0.786877 0.429099
0 0.788327 0.431266
0 0.790005 0.433692
0 0.791913 0.436454
0.0186465 0.793973 0.439475
0.0783703 0.796307 0.442817
0.134554 0.798825 0.446433
0.181155 0.801541 0.450324
0.222599 0.804486 0.454505
0.261341 0.807599 0.458976
0.29778 0.810956 0.463722
0.332631 0.814557 0.468711
0.366339 0.818296 0.47396
0.399145 0.822293 0.479454
0.43125 0.826444 0.485237
0.46302 0.830732 0.491218
0.494041 0.835325 0.497398
0.524697 0.840009 0.503853
0.554971 0.844968 0.51043
0.584955 0.850034 0.51725
0.614603 0.855329 0.524239
0.644114 0.860746 0.531411
0.673426 0.866316 0.538766
0.702678 0.872023 0.546273
0.731563 0.877928 0.553903
0.760235 0.884001 0.561654
0.78883 0.890196 0.569528
0.817319 0.896513 0.577508
0 0.815747 0.442817
0 0.816648 0.444099
0 0.817517 0.44535
0 0.818372 0.446632
0 0.819379 0.448127
0 0.820584 0.449897
0 0.822003 0.451957
0 0.823606 0.454292
0 0.825406 0.456916
0.00354009 0.827405 0.45977
0.0628824 0.829648 0.462928
0.123339 0.832029 0.466361
0.172442 0.834562 0.4701
0.215381 0.8374 0.474098
0.254871 0.840375 0.478355
0.291463 0.843656 0.482841
0.327352 0.846998 0.487633
0.361303 0.850599 0.492653
0.394629 0.854353 0.497917
0.426795 0.858381 0.503395
0.458671 0.862531 0.509102
0.489937 0.866835 0.515023
0.520928 0.871305 0.521141
0.551415 0.875975 0.52752
0.581369 0.880888 0.53402
0.611276 0.885893 0.540764
0.640879 0.891051 0.547616
0.67039 0.896391 0.554665
0.699367 0.90193 0.561837
0.728405 0.907515 0.569162
0.757336 0.913252 0.576638
0.785809 0.919188 0.584253
0.81442 0.9252 0.592035
0 0.849638 0.463706
0 0.850446 0.464927
0 0.851286 0.466148
0 0.852079 0.467369
0 0.853056 0.468772
0 0.854246 0.470481
0 0.855634 0.472404
0 0.857114 0.474617
0 0.858824 0.477104
0 0.860746 0.479835
0.047425 0.862806 0.482872
0.10927 0.865156 0.486107
0.161807 0.867582 0.489693
0.206104 0.870268 0.493462
0.246891 0.873137 0.497536
0.284962 0.876158 0.501823
0.320821 0.879423 0.506371
0.355444 0.882841 0.511147
0.389288 0.886427 0.516167
0.422156 0.890166 0.521431
0.454047 0.894148 0.526894
0.485603 0.898299 0.532555
0.516609 0.902586 0.538415
0.547311 0.907027 0.544518
0.577493 0.911711 0.550744
0.607462 0.916503 0.557183
0.637171 0.921447 0.56376
0.666804 0.926467 0.570504
0.695857 0.931777 0.577401
0.724987 0.937133 0.584558
0.753765 0.942641 0.591775
0.782605 0.948287 0.599207
0.811276 0.954086 0.606775
0 0.88336 0.484337
0 0.884153 0.485466
0 0.884886 0.486641
0 0.885695 0.487816
0 0.886656 0.489128
0 0.887724 0.490791
0 0.889036 0.492592
0 0.890471 0.494728
0 0.892149 0.497047
