Assets/HUD/Webcam/WebcamLUT.cube
TITLE "Generated by Resolve"
LUT_3D_SIZE 9
0 0 0
0.0547036 0.0182193 0.0437476
0.136873 0.0487831 0.113313
0.246021 0.0875715 0.151904
0.377859 0.119738 0.150866
0.502556 0.16022 0.166903
0.618433 0.216114 0.21091
0.733303 0.283497 0.267918
0.847608 0.356573 0.32871
0 0.125383 0.114107
0 0.137774 0.132113
0.11603 0.153826 0.142245
0.258747 0.172259 0.14287
0.385428 0.19736 0.153933
0.503532 0.233936 0.184924
0.617151 0.283207 0.23418
0.732174 0.342275 0.289235
0.845884 0.406531 0.347417
0 0.242481 0.128267
0 0.248219 0.131685
0.132967 0.258061 0.139116
0.266087 0.274098 0.154772
0.38468 0.298222 0.183658
0.499214 0.331655 0.224231
0.614618 0.37435 0.271138
0.729686 0.424292 0.322911
0.842969 0.47808 0.376562
0 0.366903 0.164889
0 0.372702 0.174411
0.108171 0.382589 0.189914
0.249195 0.398322 0.213016
0.373297 0.420783 0.243488
0.492805 0.450065 0.280613
0.61004 0.485649 0.323201
0.725277 0.525948 0.369131
0.838743 0.569757 0.417243
0 0.504067 0.246799
0 0.509529 0.25507
0.055436 0.518669 0.268635
0.228061 0.53283 0.289006
0.361837 0.552071 0.315679
0.485176 0.576196 0.347738
0.6038 0.604807 0.384222
0.719676 0.637324 0.424094
0.833265 0.673228 0.4663
0 0.644099 0.33489
0 0.648722 0.341756
0.0127565 0.656382 0.353033
0.207858 0.668086 0.369879
0.349111 0.683894 0.392081
0.4757 0.703578 0.419013
0.59588 0.726925 0.449989
0.712398 0.753597 0.484138
0.826581 0.783047 0.520638
0 0.78175 0.421637
0 0.785565 0.427237
0 0.791913 0.436454
0.181155 0.801541 0.450324
0.332631 0.814557 0.468711
0.46302 0.830732 0.491218
0.584955 0.850034 0.51725
0.702678 0.872023 0.546273
0.817319 0.896513 0.577508
0 0.916915 0.504677
0 0.920073 0.509239
0 0.925261 0.516777
0.133669 0.933257 0.528161
0.30544 0.943969 0.543343
0.442329 0.957443 0.562036
0.568032 0.973266 0.584054
0.687922 0.991653 0.60911
0.804456 1 0.636957
0 1 0.583368
0 1 0.587167
0 1 0.593469
0.0337224 1 0.603159
0.261906 1 0.61619
0.41268 1 0.632547
0.545174 1 0.652033
0.669383 1 0.674464
0.788739 1 0.699611
0 0.0056611 0.189212
0.0349889 0.0213779 0.225391
0.124529 0.0496223 0.26331
0.244541 0.0860151 0.265476
0.37879 0.11812 0.245731
0.503334 0.159548 0.251942
0.618906 0.216098 0.28658
0.733959 0.283604 0.334081
0.848203 0.356756 0.386435
0 0.12723 0.257145
0 0.138582 0.259571
0.112932 0.153597 0.252033
0.259037 0.171633 0.239887
0.386069 0.197024 0.242176
0.503883 0.233967 0.265019
0.617655 0.283467 0.305211
0.732906 0.342443 0.351858
0.846525 0.406653 0.402441
0 0.242954 0.22678
0 0.248631 0.227054
0.132387 0.258396 0.230213
0.266041 0.274434 0.240497
0.384665 0.298619 0.26302
0.49958 0.332067 0.296025
0.615244 0.374685 0.335546
0.730312 0.424536 0.38027
0.843656 0.478111 0.427726
0 0.367773 0.246021
0 0.373526 0.253605
0.106752 0.383368 0.266041
0.248951 0.399039 0.284993
0.373571 0.421439 0.310536
0.493416 0.450584 0.342321
0.610849 0.485985 0.379416
0.726085 0.526055 0.420233
0.839475 0.569787 0.463676
0 0.505028 0.310933
0 0.510399 0.318059
0.0562448 0.519463 0.329824
0.228687 0.533547 0.347601
0.362631 0.552666 0.371099
0.485954 0.576638 0.39971
0.604593 0.605097 0.432624
0.720485 0.637461 0.469001
0.834089 0.673228 0.507866
0 0.644831 0.386145
0 0.649424 0.392355
0.014374 0.657053 0.402548
0.209216 0.66865 0.417914
0.350332 0.684321 0.438254
0.476677 0.703883 0.46305
0.596841 0.727108 0.491707
0.713283 0.753643 0.523537
0.827298 0.783062 0.557794
0 0.782269 0.46392
0 0.786068 0.469139
0 0.792355 0.477714
0.183139 0.801907 0.490715
0.33373 0.814878 0.507942
0.463996 0.830991 0.529122
0.585931 0.850187 0.553689
0.70338 0.872099 0.58117
0.818097 0.896437 0.61088
0 0.917281 0.540658
0 0.920394 0.544976
0 0.925597 0.552163
0.136019 0.933516 0.562966
0.307103 0.944152 0.577447
0.443687 0.957534 0.595315
0.568887 0.973358 0.616358
0.688579 0.991699 0.640299
0.805188 1 0.667033
0 1 0.614801
0 1 0.618463
0 1 0.624506
0.0362554 1 0.633829
0.262821 1 0.646342
0.413916 1 0.66212
0.545998 1 0.680873
0.669947 1 0.702541
0.789532 1 0.726894
0 0.0184024 0.346929
0 0.0332036 0.372198
0.101854 0.0588693 0.392462
0.241794 0.0907759 0.371969
0.379416 0.120851 0.344808
0.50399 0.162249 0.347814
0.61944 0.218769 0.378012
0.734752 0.286 0.418738
0.849165 0.358373 0.463798
0 0.134981 0.380667
0 0.144686 0.373816
0.106981 0.157656 0.356451
0.25835 0.174578 0.339605
0.386191 0.199771 0.339071
0.503899 0.236713 0.358892
0.618265 0.285954 0.393408
0.733715 0.344594 0.433494
0.847486 0.408087 0.477211
0 0.246311 0.327001
0 0.25182 0.326253
0.129564 0.261372 0.327993
0.264805 0.277272 0.336416
0.383932 0.301335 0.356222
0.499718 0.334585 0.384482
0.615885 0.376928 0.418448
0.731106 0.426291 0.457099
0.844602 0.479301 0.498619
0 0.370764 0.339712
0 0.37644 0.346197
0.102541 0.386175 0.356878
0.247623 0.401709 0.373175
0.373495 0.423926 0.395224
0.493889 0.45275 0.422721
0.611566 0.487739 0.454963
0.72694 0.527413 0.490852
0.840467 0.570687 0.529519
0 0.507607 0.392874
0 0.512947 0.3991
0.0549325 0.521874 0.409354
0.22887 0.53576 0.424979
0.363073 0.554635 0.445655
0.486702 0.578302 0.47097
0.605524 0.606424 0.500359
0.721477 0.638422 0.533059
0.835035 0.673884 0.568322
0 0.646784 0.456458
0 0.651286 0.462074
0.0161135 0.658808 0.471229
0.21059 0.670207 0.485145
0.351537 0.685695 0.503532
0.477745 0.705074 0.526009
0.597787 0.728069 0.552178
0.714244 0.75436 0.581384
0.828336 0.78352 0.612985
0 0.783658 0.524819
0 0.787366 0.529641
0 0.793545 0.537575
0.185031 0.803067 0.549554
0.335302 0.815839 0.565484
0.465171 0.83183 0.585092
0.586801 0.850874 0.607935
0.704326 0.872648 0.633524
0.818921 0.896788 0.661326
0 0.918196 0.594308
0 0.92134 0.598352
0 0.926467 0.605066
0.138781 0.934295 0.615259
0.308232 0.9449 0.62884
0.444907 0.958083 0.64564
0.570001 0.973816 0.665446
0.689479 0.992065 0.688075
0.806027 1 0.713344
0 1 0.66276
0 1 0.666255
0 1 0.671992
0.0408331 1 0.680797
0.264439 1 0.692699
0.415122 1 0.707683
0.54699 1 0.725551
0.670985 1 0.746181
0.790509 1 0.769421
0 0.0406806 0.503731
0 0.0549172 0.520653
0.0683452 0.0776226 0.514229
0.238743 0.103029 0.47602
0.379629 0.130419 0.449592
0.504051 0.171145 0.453681
0.619608 0.226841 0.482383
0.735607 0.29276 0.51841
0.850034 0.363684 0.557641
0 0.148928 0.496757
0 0.156558 0.481895
0.0990616 0.167117 0.459983
0.256428 0.182986 0.444404
0.385458 0.20766 0.444739
0.503029 0.244404 0.464622
0.618601 0.292958 0.495552
0.734447 0.350591 0.53077
0.848295 0.412711 0.568765
0 0.254002 0.432227
0 0.259327 0.431617
0.122835 0.268666 0.433555
0.261433 0.284337 0.442191
0.38175 0.308293 0.461173
0.499168 0.341207 0.486503
0.616205 0.382849 0.516503
0.731853 0.431159 0.550286
0.845518 0.483055 0.586755
0 0.377371 0.444511
0 0.382971 0.45037
0.093019 0.392554 0.459968
0.244175 0.407919 0.474586
0.372244 0.42977 0.494194
0.493797 0.458122 0.518486
0.612039 0.492317 0.546899
0.727749 0.531151 0.578653
0.841413 0.573632 0.613108
0 0.513252 0.489387
0 0.518441 0.494926
0.0497444 0.527184 0.504128
0.227314 0.540764 0.518029
0.362875 0.559152 0.536461
0.48719 0.582223 0.559091
0.606348 0.609766 0.585428
0.722286 0.641291 0.614816
0.836133 0.676051 0.646754
0 0.65098 0.543481
0 0.65539 0.548562
0.0148623 0.662715 0.556909
0.210544 0.673884 0.569497
0.351949 0.688991 0.586191
0.47866 0.707927 0.606683
0.598733 0.730556 0.630533
0.715312 0.75639 0.657252
0.829526 0.785031 0.686244
0 0.786648 0.603372
0 0.790311 0.607843
0 0.796384 0.615167
0.186191 0.805676 0.626215
0.336507 0.818204 0.640925
0.466194 0.833906 0.659022
0.588113 0.852567 0.680171
0.705394 0.874037 0.703914
0.819959 0.897902 0.729717
0 0.920302 0.665812
0 0.923354 0.669627
0 0.928389 0.675868
0.141039 0.936095 0.685389
0.309789 0.946471 0.698085
0.445792 0.959548 0.713832
0.570794 0.975082 0.732357
0.690684 0.993072 0.753597
0.807034 1 0.777295
0 1 0.72842
0 1 0.73167
0 1 0.737102
0.0440528 1 0.745403
0.266758 1 0.756634
0.416663 1 0.770718
0.548272 1 0.787579
0.672023 1 0.807034
0.791379 1 0.829007
0 0.07393 0.654398
0 0.0872511 0.647257
0.0395666 0.104265 0.618006
0.236606 0.122393 0.574853
0.378943 0.148043 0.555917
0.503044 0.187701 0.564095
0.619303 0.241962 0.592401
0.736049 0.305837 0.624857
0.850523 0.374273 0.659342
0 0.167849 0.596658
0 0.173526 0.579736
0.08925 0.182528 0.561364
0.252964 0.197787 0.550378
0.383062 0.222156 0.554131
0.501183 0.258518 0.575402
0.61825 0.306096 0.603738
0.734768 0.36199 0.635157
0.848798 0.421927 0.668727
0 0.266758 0.538766
0 0.271977 0.539117
0.110506 0.28127 0.542367
0.254688 0.296925 0.552575
0.377981 0.320653 0.571206
0.497627 0.353155 0.594476
0.615946 0.393729 0.621439
0.732052 0.440497 0.651331
0.846052 0.490715 0.683894
0 0.388586 0.554162
0 0.39411 0.559533
0.0754101 0.403632 0.568414
0.237797 0.418845 0.581842
0.36936 0.440192 0.599573
0.492729 0.467796 0.621408
0.611841 0.500847 0.646815
0.728069 0.53843 0.67538
0.842008 0.579675 0.706523
0 0.52282 0.592615
0 0.527916 0.59765
0.0383001 0.536416 0.606012
0.223178 0.549477 0.618616
0.361074 0.567224 0.635355
0.486519 0.589563 0.655924
0.606378 0.61622 0.679896
0.722866 0.646815 0.706752
0.836881 0.680705 0.735973
0 0.658305 0.639261
0 0.662501 0.643915
0.00886549 0.669535 0.651606
0.208408 0.680339 0.663218
0.351171 0.695048 0.678599
0.47863 0.713359 0.697536
0.599161 0.735317 0.719585
0.715969 0.760525 0.744259
0.830106 0.788632 0.771084
0 0.791928 0.692424
0 0.795468 0.696559
0 0.801373 0.703349
0.185962 0.81033 0.713726
0.336629 0.822553 0.727459
0.466728 0.837858 0.744381
0.588724 0.856062 0.764111
0.706127 0.877043 0.786313
0.820813 0.900374 0.810468
0 0.924102 0.748989
0 0.927047 0.752575
0 0.93196 0.758495
0.140459 0.939529 0.767452
0.310124 0.94963 0.779446
0.446403 0.962341 0.794232
0.571466 0.977554 0.811673
0.691386 0.995377 0.831678
0.807843 1 0.854032
0 1 0.806516
0 1 0.809644
0 1 0.814694
0.0452888 1 0.822599
0.26743 1 0.833234
0.417227 1 0.846525
0.549355 1 0.862547
0.673091 1 0.880995
0.792584 1 0.901717
0 0.114763 0.764981
0 0.12314 0.74197
0.0272679 0.133776 0.704707
0.234211 0.148592 0.673579
0.376699 0.173693 0.664027
0.500145 0.21265 0.678233
0.61825 0.264958 0.705333
0.735805 0.325978 0.734371
0.850446 0.390753 0.764721
0 0.190753 0.686
0 0.195544 0.674342
0.0756542 0.204196 0.662837
0.246998 0.219379 0.658
0.378225 0.2439 0.666773
0.49807 0.279835 0.688945
0.616968 0.326024 0.714748
0.734142 0.37969 0.742626
0.848722 0.436469 0.772564
0 0.285069 0.647028
0 0.290349 0.648814
0.0892653 0.299763 0.654124
0.243503 0.315709 0.666453
0.372091 0.339315 0.684077
0.49482 0.37113 0.705257
0.614527 0.410498 0.729427
0.731472 0.455055 0.756039
0.84596 0.502983 0.785504
0 0.405112 0.666484
0 0.41062 0.671519
0.049897 0.420127 0.679759
0.227863 0.435004 0.691936
0.364416 0.455817 0.708049
0.490181 0.482399 0.727611
0.610529 0.514015 0.750546
0.727504 0.550072 0.776562
0.842069 0.589578 0.805127
0 0.53695 0.699153
0 0.541848 0.703777
0.019852 0.549996 0.711376
0.215259 0.562478 0.72285
0.357382 0.5794 0.738216
0.484611 0.600824 0.757092
0.605447 0.626413 0.779202
0.722515 0.655833 0.804059
0.836896 0.688533 0.831159
0 0.669123 0.73959
0 0.673182 0.743923
0 0.679911 0.75108
0.20267 0.690227 0.761883
0.348516 0.704295 0.776242
0.47718 0.721965 0.793912
0.598398 0.74316 0.814511
0.715801 0.767422 0.837644
0.830365 0.794537 0.862837
0 0.800076 0.787335
0 0.803494 0.791226
0 0.809094 0.797711
0.181353 0.817777 0.807416
0.334371 0.829557 0.820386
0.465644 0.844266 0.836408
0.588174 0.861936 0.855055
0.706035 0.8822 0.876051
0.820798 0.904952 0.898955
0 0.930098 0.839353
0 0.932891 0.842741
0 0.937682 0.848386
0.13698 0.944915 0.856916
0.30837 0.954726 0.868391
0.445441 0.967056 0.882429
0.571084 0.981918 0.899046
0.691493 0.999283 0.918105
0.80824 1 0.939391
0 1 0.892851
0 1 0.895811
0 1 0.900694
0.0419471 1 0.908232
0.26656 1 0.918349
0.416953 1 0.93109
0.548836 1 0.946258
0.673396 1 0.963912
0.792905 1 0.983642
0 0.153918 0.839033
0 0.158831 0.81619
0.0210269 0.166751 0.791714
0.229343 0.181598 0.775357
0.371801 0.206882 0.775753
0.495399 0.245487 0.795056
0.615839 0.295659 0.819562
0.734218 0.353262 0.844877
0.849409 0.413489 0.871611
0 0.218509 0.778393
0 0.223377 0.772183
0.056199 0.232227 0.767269
0.236576 0.247959 0.76907
0.369757 0.273152 0.783261
0.493492 0.308568 0.804334
0.614496 0.352941 0.827192
0.732509 0.403571 0.851347
0.847578 0.45687 0.878157
0 0.309453 0.758709
0 0.315007 0.762249
0.0523232 0.324865 0.769879
0.227665 0.341039 0.782467
0.363851 0.36463 0.798657
0.490227 0.395529 0.817472
0.611902 0.433036 0.838575
0.729839 0.47509 0.862425
0.844923 0.520363 0.889174
0 0.427436 0.780743
0 0.432975 0.78529
0.016083 0.442222 0.79263
0.213489 0.456779 0.80351
0.357092 0.476905 0.817853
0.485893 0.502113 0.835294
0.607843 0.532128 0.856077
0.726009 0.566186 0.879942
0.841062 0.6038 0.90631
0 0.555688 0.807355
0 0.560342 0.811505
0 0.568063 0.818418
0.203479 0.579919 0.828962
0.351034 0.595987 0.843046
0.48069 0.616373 0.860441
0.603052 0.640665 0.880949
0.721065 0.66865 0.904189
0.836149 0.699809 0.929656
0 0.683772 0.842298
0 0.687633 0.846403
0 0.694041 0.853086
0.192615 0.703838 0.863203
0.343359 0.717159 0.876722
0.473976 0.734005 0.893309
0.596582 0.754147 0.912764
0.714488 0.777462 0.934691
0.829541 0.803433 0.958602
0 0.811307 0.885618
0 0.814511 0.889342
0 0.819883 0.89543
0.172107 0.828214 0.904707
0.329915 0.839399 0.917052
0.462699 0.853513 0.932326
0.586191 0.870436 0.95021
0.704646 0.889952 0.97026
0.820081 0.911833 0.992279
0 0.938506 0.934005
0 0.941268 0.937255
0 0.9458 0.942733
0.12697 0.952743 0.950942
0.303853 0.962142 0.961898
0.442695 0.974029 0.975402
0.569528 0.988464 0.99147
0.690349 1 1
0.807706 1 1
0 1 0.984375
0 1 0.987289
0 1 0.991943
0.0324407 1 0.999207
0.262699 1 1
0.415259 1 1
0.547967 1 1
0.672663 1 1
0.792905 1 1
0 0.192218 0.910216
0 0.19675 0.89868
0.0071107 0.205341 0.887449
0.218952 0.221302 0.883116
0.36202 0.247745 0.893004
0.488853 0.285908 0.913329
0.611978 0.333288 0.934203
0.731182 0.386938 0.955306
0.847242 0.442084 0.978927
0 0.252201 0.87808
0 0.25745 0.876478
0.0245518 0.267094 0.877424
0.218463 0.283925 0.885664
0.358175 0.309758 0.901991
0.486748 0.34432 0.920211
0.610315 0.386389 0.939635
0.729519 0.433371 0.960311
0.845594 0.482551 0.98439
0 0.340581 0.875868
0 0.346502 0.88069
0.00395209 0.356756 0.888502
0.206256 0.37322 0.899916
0.352621 0.396338 0.91371
0.483513 0.426093 0.929885
0.607492 0.461265 0.947936
0.726802 0.500435 0.969329
0.842786 0.542733 0.993759
0 0.455543 0.89572
0 0.46096 0.899687
0 0.470039 0.906096
0.19411 0.484092 0.915648
0.346746 0.503197 0.927871
0.479561 0.526894 0.943465
0.603677 0.555016 0.962341
0.723156 0.586999 0.984298
0.839033 0.622385 1
0 0.578958 0.916197
0 0.583352 0.919951
0 0.590631 0.926253
0.186358 0.60177 0.935836
0.341878 0.616953 0.948775
0.474861 0.636133 0.964874
0.59913 0.659037 0.984039
0.718364 0.685405 1
0.834104 0.714885 1
0 0.702266 0.946349
0 0.705821 0.950149
0 0.711879 0.95642
0.177157 0.721141 0.965957
0.334951 0.733761 0.978653
0.46862 0.74966 0.994385
0.592889 0.768673 1
0.711879 0.790753 1
0.827741 0.815427 1
0 0.825711 0.985855
0 0.828763 0.98938
0 0.833829 0.995239
0.157885 0.841657 1
0.322072 0.852338 1
0.457496 0.865782 1
0.58265 0.881773 1
0.702113 0.900282 1
0.818173 0.921431 1
0 0.949554 1
0 0.952163 1
0 0.956497 1
0.109178 0.963134 1
0.295705 0.972091 1
0.437781 0.98349 1
0.565896 0.997467 1
0.687999 1 1
0.80618 1 1
0 1 1
0 1 1
0 1 1
0.0138247 1 1
0.255467 1 1
0.410224 1 1
0.545296 1 1
0.670939 1 1
0.791485 1 1
0 0.23534 0.999496
0 0.240696 0.995666
0 0.250614 0.99382
0.197604 0.268269 0.999329
0.346975 0.295918 1
0.479759 0.332784 1
0.605875 0.377081 1
0.726619 0.425803 1
0.843763 0.475853 1
0 0.292775 0.987533
0 0.298756 0.989624
0 0.309483 0.995666
0.189487 0.327428 1
0.343069 0.353079 1
0.477775 0.386221 1
0.603906 0.425605 1
0.724819 0.468406 1
0.841993 0.513466 1
0 0.378927 0.997147
0 0.385061 1
0 0.395346 1
0.177539 0.411643 1
0.338064 0.434043 1
0.474418 0.462135 1
0.601267 0.49456 1
0.722255 0.530648 1
0.839292 0.569757 1
0 0.489235 1
0 0.494499 1
0 0.503182 1
0.167742 0.516426 1
0.333471 0.534173 1
0.470985 0.556268 1
0.597711 0.582452 1
0.7187 0.612253 1
0.83563 0.645167 1
0 0.6065 1
0 0.610559 1
0 0.617365 1
0.162219 0.627848 1
0.329152 0.642084 1
0.466911 0.659922 1
0.593378 0.681346 1
0.714061 0.706111 1
0.830991 0.733654 1
0 0.724346 1
0 0.727733 1
0 0.733379 1
0.155245 0.742031 1
0.323415 0.753887 1
0.460929 0.768765 1
0.587289 0.786679 1
0.707774 0.80737 1
0.824292 0.830686 1
0 0.84329 1
0 0.84622 1
0 0.850919 1
0.135012 0.858305 1
0.310933 0.868269 1
0.450263 0.880858 1
0.57702 0.896071 1
0.698146 0.913527 1
0.815061 0.933822 1
0 0.963348 1
0 0.965759 1
0 0.969879 1
0.0801251 0.976074 1
0.28397 0.98468 1
0.430228 0.995605 1
0.560845 1 1
0.684276 1 1
0.803525 1 1
0 1 1
0 1 1
0 1 1
0 1 1
0.243381 1 1
0.403738 1 1
0.540215 1 1
0.667475 1 1
0.789044 1 1
